!!! OTL: Literature54
!!! Chapter: 5
!!! Section: II
!!! Page: 356
!!! Mode: 
!!! Encoder: DJB
**kern
*staff1
*I"Piano
=1-
*clefG2
*k[b-]
*F:
*M4/4
4r
4r
4r
8r
8f/
=2
4a/
8g/L
8g/J
4.f/
8f/
=3
8g/L
8g/J
4a/
4f/
8cc\L
8dd\J
=4
4ee-\
8cc\L
8b-\J
4.a/
8a/
=5
2.b-\
4b-\
=6
4cc\
8ee-\L
8ee-\J
4cc\
8cc\L
8a\J
=7
4f/
4f/
4c/
8c/L
8c/J
=8
4e-/
8c/L
8c/J
4cc\
4cc\
=9
!!linebreak:original
2.f/
8f/L
8e-/J
=10
4c/
8B-/L
8B-/J
4c/
4e/
=11
2.f/
4r
==
*-
